src/img/icons/icon-home.svg

<svg width="16" height="16" viewBox="0 0 16 16" fill="none" xmlns="http://www.w3.org/2000/svg">
<path fill-rule="evenodd" clip-rule="evenodd" d="M7.9989 -6.4e-05L0.228464 6.85808C-0.040352 7.09549 -0.069072 7.50912 0.164384 7.7823C0.39784 8.0555 0.804912 8.08451 1.07362 7.84734L1.36006 7.5947V14.0346C1.36006 15.1201 2.22581 15.9999 3.29365 15.9999H6.90323V10.7264C6.90323 10.0933 7.40827 9.58002 8.03117 9.58002C8.65418 9.58002 9.15909 10.0933 9.15909 10.7264V15.9999H12.7041C13.7721 15.9999 14.6378 15.1201 14.6378 14.0346V7.5947L14.9242 7.84734C15.193 8.08475 15.6001 8.0555 15.8335 7.7823C16.0669 7.50912 16.0383 7.09549 15.7694 6.85832L7.9989 -6.4e-05ZM13.3487 14.0346C13.3487 14.3963 13.0602 14.6898 12.7041 14.6898H10.4483V10.7264C10.4483 9.36968 9.36611 8.26994 8.03117 8.26994C6.69621 8.26994 5.61406 9.36968 5.61406 10.7264V14.6898H3.29365C2.93774 14.6898 2.64912 14.3963 2.64912 14.0346V6.45677L7.9989 1.73502L13.3487 6.45677V14.0346Z" fill="#727272"/>
</svg>

<svg width="16" height="16" fill="none" xmlns="http://www.w3.org/2000/svg"><path fill-rule="evenodd" clip-rule="evenodd" d="M7.999 0L.229 6.858a.663.663 0 00-.065.924c.234.274.64.303.91.065l.286-.252v6.44C1.36 15.12 2.226 16 3.294 16h3.61v-5.274c0-.633.504-1.146 1.127-1.146s1.128.513 1.128 1.146V16h3.545c1.068 0 1.934-.88 1.934-1.965v-6.44l.286.252a.637.637 0 00.91-.065.662.662 0 00-.065-.924L8 0zm5.35 14.035a.65.65 0 01-.645.655h-2.256v-3.964c0-1.356-1.082-2.456-2.417-2.456-1.335 0-2.417 1.1-2.417 2.456v3.964h-2.32a.65.65 0 01-.645-.655V6.457L8 1.735l5.35 4.722v7.578z" fill="#727272"/></svg>
